!!!OTL: WAT SCHWEMMT OP USEN DUIKE
!!!ARE: Europa, Mitteleuropa, Deutschland, Westfalen, Soest
!!!SCT: E1560
!!!YEM: Copyright 1995, estate of Helmut Schaffrath.
**kern
*ICvox
*Ivox
*M3/8
*k[b-e-]
*B-:
{8f
=1
8b-
8b-
16cc
16a
=2
8b-
8b-
8f
=3
4b-}
{8b-
=4
8ee-
8ee-
8cc
=5
8dd
8dd
8b-
=6
4cc
8a
=7
4b-}
{8f
=8
8b-
8b-
8b-
=9
16b-
16g
8f
8f
=10
4b-
8cc
=11
4b-}
{8f
=12
8ee-
8ee-
8cc
=13
8dd
8dd
8b-
=14
4cc
8a
=15
4b-}
==
!!!AGN: Staende -, Bauern - Lied, Flachsbrechen, bei der Arbeit
!!!ONB: ESAC (Essen Associative Code) Database: ERK3
!!!AMT: simple triple
!!!AIN: vox
!!!EED: Helmut Schaffrath
!!!EEV: 1.0
*-
